X: 21682
T: SICH A GETTING UP STAIRS
O: Popular Negro song.
%R: air, reel
B: W. Hamilton "Universal Tune-Book" Vol. 2 Glasgow 1846 p.168 #2
S: http://s3-eu-west-1.amazonaws.com/itma.dl.printmaterial/book_pdfs/hamiltonvol2web.pdf
Z: 2016 John Chambers <jc:trillian.mit.edu>
M: 2/4
L: 1/16
K: G
% - - - - - - - - - - - - - - - - - - - - - - - - -
G2 |\
B2c2d2G2 | B2c2d2z2 | e2d2c2B2 | A2B2c2z2 |\
B2c2d2G2 | B2c2d2z2 | e2d2c2B2 | A2B2c2 |] (dc) |
BGAF D2G2 | FGAB cAdc | BGAF D2G2 | FGAB G2dc |\
BGAF DFEG | FGAB cAdc | BGAF DFEG | FGAB G2 |]
% - - - - - - - - - - - - - - - - - - - - - - - - -

%%sep 1 1 500
%%sep 1 1 500

